%
(Header)
(Generated by gcodetools from Inkscape.)
(Using default header. To add your own header create file "header" in the output dir.)
M3
(Header end.)
G21 (All units in mm)

(Start cutting path id: text1)
(Change tool to Default tool)

G00 Z5.000000
G00 X2.723756 Y90.313060

G01 Z-1.000000 F100.0(Penetrate)
G01 X8.672601 Y90.313060 Z-1.000000 F400.000000
G01 X8.672601 Y72.289824 Z-1.000000
G01 X30.288703 Y72.289824 Z-1.000000
G01 X30.288703 Y90.313060 Z-1.000000
G01 X36.237551 Y90.313060 Z-1.000000
G01 X36.237551 Y46.344609 Z-1.000000
G01 X30.288703 Y46.344609 Z-1.000000
G01 X30.288703 Y67.283370 Z-1.000000
G01 X8.672601 Y67.283370 Z-1.000000
G01 X8.672601 Y46.344609 Z-1.000000
G01 X2.723756 Y46.344609 Z-1.000000
G01 X2.723756 Y90.313060 Z-1.000000
G00 Z5.000000

(End cutting path id: text1)


(Start cutting path id: text1)
(Change tool to Default tool)

G00 Z5.000000
G00 X2.723756 Y90.313060

G01 Z-2.000000 F100.0(Penetrate)
G01 X8.672601 Y90.313060 Z-2.000000 F400.000000
G01 X8.672601 Y72.289824 Z-2.000000
G01 X30.288703 Y72.289824 Z-2.000000
G01 X30.288703 Y90.313060 Z-2.000000
G01 X36.237551 Y90.313060 Z-2.000000
G01 X36.237551 Y46.344609 Z-2.000000
G01 X30.288703 Y46.344609 Z-2.000000
G01 X30.288703 Y67.283370 Z-2.000000
G01 X8.672601 Y67.283370 Z-2.000000
G01 X8.672601 Y46.344609 Z-2.000000
G01 X2.723756 Y46.344609 Z-2.000000
G01 X2.723756 Y90.313060 Z-2.000000
G00 Z5.000000

(End cutting path id: text1)


(Start cutting path id: text1)
(Change tool to Default tool)

G00 Z5.000000
G00 X2.723756 Y90.313060

G01 Z-3.000000 F100.0(Penetrate)
G01 X8.672601 Y90.313060 Z-3.000000 F400.000000
G01 X8.672601 Y72.289824 Z-3.000000
G01 X30.288703 Y72.289824 Z-3.000000
G01 X30.288703 Y90.313060 Z-3.000000
G01 X36.237551 Y90.313060 Z-3.000000
G01 X36.237551 Y46.344609 Z-3.000000
G01 X30.288703 Y46.344609 Z-3.000000
G01 X30.288703 Y67.283370 Z-3.000000
G01 X8.672601 Y67.283370 Z-3.000000
G01 X8.672601 Y46.344609 Z-3.000000
G01 X2.723756 Y46.344609 Z-3.000000
G01 X2.723756 Y90.313060 Z-3.000000
G00 Z5.000000

(End cutting path id: text1)


(Start cutting path id: text1)
(Change tool to Default tool)

G00 Z5.000000
G00 X70.634835 Y65.781433

G01 Z-1.000000 F100.0(Penetrate)
G03 X69.891782 Y69.955793 Z-1.000000 I-13.069322 J-0.173080 F400.000000
G03 X68.131607 Y72.878819 Z-1.000000 I-7.982576 J-2.815433
G03 X65.394161 Y74.799019 Z-1.000000 I-5.658682 J-5.155684
G03 X61.711566 Y75.529295 Z-1.000000 I-3.682596 J-8.920066
G03 X57.463088 Y74.802951 Z-1.000000 I0.000000 J-12.788113
G03 X54.437483 Y72.967168 Z-1.000000 I2.864250 J-8.131836
G03 X52.411847 Y70.074041 Z-1.000000 I6.032991 J-6.379719
G03 X51.315810 Y65.751984 Z-1.000000 I12.844732 J-5.557314
G01 X70.634835 Y65.781433 Z-1.000000
G00 Z5.000000

(End cutting path id: text1)


(Start cutting path id: text1)
(Change tool to Default tool)

G00 Z5.000000
G00 X70.634835 Y65.781433

G01 Z-2.000000 F100.0(Penetrate)
G03 X69.891782 Y69.955793 Z-2.000000 I-13.069322 J-0.173080 F400.000000
G03 X68.131607 Y72.878819 Z-2.000000 I-7.982576 J-2.815433
G03 X65.394161 Y74.799019 Z-2.000000 I-5.658682 J-5.155684
G03 X61.711566 Y75.529295 Z-2.000000 I-3.682596 J-8.920066
G03 X57.463088 Y74.802951 Z-2.000000 I0.000000 J-12.788113
G03 X54.437483 Y72.967168 Z-2.000000 I2.864250 J-8.131836
G03 X52.411847 Y70.074041 Z-2.000000 I6.032991 J-6.379719
G03 X51.315810 Y65.751984 Z-2.000000 I12.844732 J-5.557314
G01 X70.634835 Y65.781433 Z-2.000000
G00 Z5.000000

(End cutting path id: text1)


(Start cutting path id: text1)
(Change tool to Default tool)

G00 Z5.000000
G00 X70.634835 Y65.781433

G01 Z-3.000000 F100.0(Penetrate)
G03 X69.891782 Y69.955793 Z-3.000000 I-13.069322 J-0.173080 F400.000000
G03 X68.131607 Y72.878819 Z-3.000000 I-7.982576 J-2.815433
G03 X65.394161 Y74.799019 Z-3.000000 I-5.658682 J-5.155684
G03 X61.711566 Y75.529295 Z-3.000000 I-3.682596 J-8.920066
G03 X57.463088 Y74.802951 Z-3.000000 I0.000000 J-12.788113
G03 X54.437483 Y72.967168 Z-3.000000 I2.864250 J-8.131836
G03 X52.411847 Y70.074041 Z-3.000000 I6.032991 J-6.379719
G03 X51.315810 Y65.751984 Z-3.000000 I12.844732 J-5.557314
G01 X70.634835 Y65.781433 Z-3.000000
G00 Z5.000000

(End cutting path id: text1)


(Start cutting path id: text1)
(Change tool to Default tool)

G00 Z5.000000
G00 X76.053586 Y64.191149

G01 Z-1.000000 F100.0(Penetrate)
G01 X76.053586 Y61.540673 Z-1.000000 F400.000000
G01 X51.139114 Y61.540673 Z-1.000000
G03 X52.301093 Y56.315261 Z-1.000000 I17.221585 J1.087675
G03 X54.496384 Y53.000250 Z-1.000000 I8.859843 J3.482835
G03 X57.871522 Y50.933619 Z-1.000000 I6.392818 J6.651106
G03 X62.919005 Y50.084726 Z-1.000000 I5.047483 J14.581609
G03 X66.015424 Y50.280301 Z-1.000000 I-0.000000 J24.609612
G03 X68.956202 Y50.850420 Z-1.000000 I-2.886417 J22.758250
G03 X71.834401 Y51.787704 Z-1.000000 I-6.303828 J24.245518
G03 X74.787248 Y53.147498 Z-1.000000 I-10.590839 J26.884454
G01 X74.787248 Y48.023245 Z-1.000000
G02 X71.826145 Y46.931210 Z-1.000000 I-12.868436 J30.332764
G02 X68.808952 Y46.138461 Z-1.000000 I-9.679788 J30.703059
G02 X65.729134 Y45.653514 Z-1.000000 I-6.172994 J29.181474
G02 X62.595058 Y45.490568 Z-1.000000 I-3.134075 J30.058684
G02 X55.241452 Y46.797539 Z-1.000000 I0.000000 J21.340836
G02 X50.078922 Y50.084726 Z-1.000000 I4.937757 J13.452225
G02 X46.789632 Y55.219378 Z-1.000000 I10.075008 J10.075008
G02 X45.484764 Y62.512513 Z-1.000000 I19.728866 J7.293135
G02 X46.741000 Y70.121519 Z-1.000000 I23.671954 J0.000000
G02 X49.843325 Y75.352595 Z-1.000000 I13.940717 J-4.732171
G02 X54.814664 Y78.794390 Z-1.000000 I10.123324 J-9.310957
G02 X61.652668 Y80.123453 Z-1.000000 I6.838003 J-16.926167
G02 X67.771513 Y78.920611 Z-1.000000 I-0.000000 J-16.164677
G02 X72.166221 Y75.823792 Z-1.000000 I-4.547975 J-11.120735
G02 X74.926887 Y71.117547 Z-1.000000 I-9.769376 J-8.893499
G02 X76.053586 Y64.191149 Z-1.000000 I-20.726724 J-6.926398
G01 X76.053586 Y64.191149 Z-1.000000
G00 Z5.000000

(End cutting path id: text1)


(Start cutting path id: text1)
(Change tool to Default tool)

G00 Z5.000000
G00 X76.053586 Y64.191149

G01 Z-2.000000 F100.0(Penetrate)
G01 X76.053586 Y61.540673 Z-2.000000 F400.000000
G01 X51.139114 Y61.540673 Z-2.000000
G03 X52.301093 Y56.315261 Z-2.000000 I17.221585 J1.087675
G03 X54.496384 Y53.000250 Z-2.000000 I8.859843 J3.482835
G03 X57.871522 Y50.933619 Z-2.000000 I6.392818 J6.651106
G03 X62.919005 Y50.084726 Z-2.000000 I5.047483 J14.581609
G03 X66.015424 Y50.280301 Z-2.000000 I-0.000000 J24.609612
G03 X68.956202 Y50.850420 Z-2.000000 I-2.886417 J22.758250
G03 X71.834401 Y51.787704 Z-2.000000 I-6.303828 J24.245518
G03 X74.787248 Y53.147498 Z-2.000000 I-10.590839 J26.884454
G01 X74.787248 Y48.023245 Z-2.000000
G02 X71.826145 Y46.931210 Z-2.000000 I-12.868436 J30.332764
G02 X68.808952 Y46.138461 Z-2.000000 I-9.679788 J30.703059
G02 X65.729134 Y45.653514 Z-2.000000 I-6.172994 J29.181474
G02 X62.595058 Y45.490568 Z-2.000000 I-3.134075 J30.058684
G02 X55.241452 Y46.797539 Z-2.000000 I0.000000 J21.340836
G02 X50.078922 Y50.084726 Z-2.000000 I4.937757 J13.452225
G02 X46.789632 Y55.219378 Z-2.000000 I10.075008 J10.075008
G02 X45.484764 Y62.512513 Z-2.000000 I19.728866 J7.293135
G02 X46.741000 Y70.121519 Z-2.000000 I23.671954 J0.000000
G02 X49.843325 Y75.352595 Z-2.000000 I13.940717 J-4.732171
G02 X54.814664 Y78.794390 Z-2.000000 I10.123324 J-9.310957
G02 X61.652668 Y80.123453 Z-2.000000 I6.838003 J-16.926167
G02 X67.771513 Y78.920611 Z-2.000000 I-0.000000 J-16.164677
G02 X72.166221 Y75.823792 Z-2.000000 I-4.547975 J-11.120735
G02 X74.926887 Y71.117547 Z-2.000000 I-9.769376 J-8.893499
G02 X76.053586 Y64.191149 Z-2.000000 I-20.726724 J-6.926398
G01 X76.053586 Y64.191149 Z-2.000000
G00 Z5.000000

(End cutting path id: text1)


(Start cutting path id: text1)
(Change tool to Default tool)

G00 Z5.000000
G00 X76.053586 Y64.191149

G01 Z-3.000000 F100.0(Penetrate)
G01 X76.053586 Y61.540673 Z-3.000000 F400.000000
G01 X51.139114 Y61.540673 Z-3.000000
G03 X52.301093 Y56.315261 Z-3.000000 I17.221585 J1.087675
G03 X54.496384 Y53.000250 Z-3.000000 I8.859843 J3.482835
G03 X57.871522 Y50.933619 Z-3.000000 I6.392818 J6.651106
G03 X62.919005 Y50.084726 Z-3.000000 I5.047483 J14.581609
G03 X66.015424 Y50.280301 Z-3.000000 I-0.000000 J24.609612
G03 X68.956202 Y50.850420 Z-3.000000 I-2.886417 J22.758250
G03 X71.834401 Y51.787704 Z-3.000000 I-6.303828 J24.245518
G03 X74.787248 Y53.147498 Z-3.000000 I-10.590839 J26.884454
G01 X74.787248 Y48.023245 Z-3.000000
G02 X71.826145 Y46.931210 Z-3.000000 I-12.868436 J30.332764
G02 X68.808952 Y46.138461 Z-3.000000 I-9.679788 J30.703059
G02 X65.729134 Y45.653514 Z-3.000000 I-6.172994 J29.181474
G02 X62.595058 Y45.490568 Z-3.000000 I-3.134075 J30.058684
G02 X55.241452 Y46.797539 Z-3.000000 I0.000000 J21.340836
G02 X50.078922 Y50.084726 Z-3.000000 I4.937757 J13.452225
G02 X46.789632 Y55.219378 Z-3.000000 I10.075008 J10.075008
G02 X45.484764 Y62.512513 Z-3.000000 I19.728866 J7.293135
G02 X46.741000 Y70.121519 Z-3.000000 I23.671954 J0.000000
G02 X49.843325 Y75.352595 Z-3.000000 I13.940717 J-4.732171
G02 X54.814664 Y78.794390 Z-3.000000 I10.123324 J-9.310957
G02 X61.652668 Y80.123453 Z-3.000000 I6.838003 J-16.926167
G02 X67.771513 Y78.920611 Z-3.000000 I-0.000000 J-16.164677
G02 X72.166221 Y75.823792 Z-3.000000 I-4.547975 J-11.120735
G02 X74.926887 Y71.117547 Z-3.000000 I-9.769376 J-8.893499
G02 X76.053586 Y64.191149 Z-3.000000 I-20.726724 J-6.926398
G01 X76.053586 Y64.191149 Z-3.000000
G00 Z5.000000

(End cutting path id: text1)


(Start cutting path id: text1)
(Change tool to Default tool)

G00 Z5.000000
G00 X84.947407 Y92.168392

G01 Z-1.000000 F100.0(Penetrate)
G01 X90.366157 Y92.168392 Z-1.000000 F400.000000
G01 X90.366157 Y46.344609 Z-1.000000
G01 X84.947407 Y46.344609 Z-1.000000
G01 X84.947407 Y92.168392 Z-1.000000
G00 Z5.000000

(End cutting path id: text1)


(Start cutting path id: text1)
(Change tool to Default tool)

G00 Z5.000000
G00 X84.947407 Y92.168392

G01 Z-2.000000 F100.0(Penetrate)
G01 X90.366157 Y92.168392 Z-2.000000 F400.000000
G01 X90.366157 Y46.344609 Z-2.000000
G01 X84.947407 Y46.344609 Z-2.000000
G01 X84.947407 Y92.168392 Z-2.000000
G00 Z5.000000

(End cutting path id: text1)


(Start cutting path id: text1)
(Change tool to Default tool)

G00 Z5.000000
G00 X84.947407 Y92.168392

G01 Z-3.000000 F100.0(Penetrate)
G01 X90.366157 Y92.168392 Z-3.000000 F400.000000
G01 X90.366157 Y46.344609 Z-3.000000
G01 X84.947407 Y46.344609 Z-3.000000
G01 X84.947407 Y92.168392 Z-3.000000
G00 Z5.000000

(End cutting path id: text1)


(Start cutting path id: text1)
(Change tool to Default tool)

G00 Z5.000000
G00 X101.704306 Y92.168392

G01 Z-1.000000 F100.0(Penetrate)
G01 X107.123056 Y92.168392 Z-1.000000 F400.000000
G01 X107.123056 Y46.344609 Z-1.000000
G01 X101.704306 Y46.344609 Z-1.000000
G01 X101.704306 Y92.168392 Z-1.000000
G00 Z5.000000

(End cutting path id: text1)


(Start cutting path id: text1)
(Change tool to Default tool)

G00 Z5.000000
G00 X101.704306 Y92.168392

G01 Z-2.000000 F100.0(Penetrate)
G01 X107.123056 Y92.168392 Z-2.000000 F400.000000
G01 X107.123056 Y46.344609 Z-2.000000
G01 X101.704306 Y46.344609 Z-2.000000
G01 X101.704306 Y92.168392 Z-2.000000
G00 Z5.000000

(End cutting path id: text1)


(Start cutting path id: text1)
(Change tool to Default tool)

G00 Z5.000000
G00 X101.704306 Y92.168392

G01 Z-3.000000 F100.0(Penetrate)
G01 X107.123056 Y92.168392 Z-3.000000 F400.000000
G01 X107.123056 Y46.344609 Z-3.000000
G01 X101.704306 Y46.344609 Z-3.000000
G01 X101.704306 Y92.168392 Z-3.000000
G00 Z5.000000

(End cutting path id: text1)


(Start cutting path id: text1)
(Change tool to Default tool)

G00 Z5.000000
G00 X131.242387 Y80.123453

G01 Z-1.000000 F100.0(Penetrate)
G02 X137.726981 Y78.834796 Z-1.000000 I0.000000 J-16.959759 F400.000000
G02 X142.344936 Y75.529295 Z-1.000000 I-4.784656 J-11.562920
G02 X145.190898 Y70.487289 Z-1.000000 I-10.594907 J-9.304505
G02 X146.379550 Y62.807010 Z-1.000000 I-24.218098 J-7.680279
G02 X145.194892 Y55.152538 Z-1.000000 I-25.321382 J0.000000
G02 X142.344936 Y50.084726 Z-1.000000 I-13.600299 J4.313059
G02 X137.726981 Y46.779224 Z-1.000000 I-9.402611 J8.257418
G02 X131.242387 Y45.490568 Z-1.000000 I-6.484594 J15.671103
G02 X124.729463 Y46.781689 Z-1.000000 I0.000000 J17.072437
G02 X120.110389 Y50.084726 Z-1.000000 I4.763848 J11.543169
G02 X117.282440 Y55.147313 Z-1.000000 I10.795390 J9.351415
G02 X116.105226 Y62.807010 Z-1.000000 I24.330811 J7.659698
G02 X117.286412 Y70.492549 Z-1.000000 I25.594080 J0.000000
G02 X120.110389 Y75.529295 Z-1.000000 I13.463094 J-4.238380
G02 X124.729463 Y78.832331 Z-1.000000 I9.382921 J-8.240133
G02 X131.242387 Y80.123453 Z-1.000000 I6.512924 J-15.781316
G01 X131.242387 Y80.123453 Z-1.000000
G00 Z5.000000

(End cutting path id: text1)


(Start cutting path id: text1)
(Change tool to Default tool)

G00 Z5.000000
G00 X131.242387 Y80.123453

G01 Z-2.000000 F100.0(Penetrate)
G02 X137.726981 Y78.834796 Z-2.000000 I0.000000 J-16.959759 F400.000000
G02 X142.344936 Y75.529295 Z-2.000000 I-4.784656 J-11.562920
G02 X145.190898 Y70.487289 Z-2.000000 I-10.594907 J-9.304505
G02 X146.379550 Y62.807010 Z-2.000000 I-24.218098 J-7.680279
G02 X145.194892 Y55.152538 Z-2.000000 I-25.321382 J0.000000
G02 X142.344936 Y50.084726 Z-2.000000 I-13.600299 J4.313059
G02 X137.726981 Y46.779224 Z-2.000000 I-9.402611 J8.257418
G02 X131.242387 Y45.490568 Z-2.000000 I-6.484594 J15.671103
G02 X124.729463 Y46.781689 Z-2.000000 I0.000000 J17.072437
G02 X120.110389 Y50.084726 Z-2.000000 I4.763848 J11.543169
G02 X117.282440 Y55.147313 Z-2.000000 I10.795390 J9.351415
G02 X116.105226 Y62.807010 Z-2.000000 I24.330811 J7.659698
G02 X117.286412 Y70.492549 Z-2.000000 I25.594080 J0.000000
G02 X120.110389 Y75.529295 Z-2.000000 I13.463094 J-4.238380
G02 X124.729463 Y78.832331 Z-2.000000 I9.382921 J-8.240133
G02 X131.242387 Y80.123453 Z-2.000000 I6.512924 J-15.781316
G01 X131.242387 Y80.123453 Z-2.000000
G00 Z5.000000

(End cutting path id: text1)


(Start cutting path id: text1)
(Change tool to Default tool)

G00 Z5.000000
G00 X131.242387 Y80.123453

G01 Z-3.000000 F100.0(Penetrate)
G02 X137.726981 Y78.834796 Z-3.000000 I0.000000 J-16.959759 F400.000000
G02 X142.344936 Y75.529295 Z-3.000000 I-4.784656 J-11.562920
G02 X145.190898 Y70.487289 Z-3.000000 I-10.594907 J-9.304505
G02 X146.379550 Y62.807010 Z-3.000000 I-24.218098 J-7.680279
G02 X145.194892 Y55.152538 Z-3.000000 I-25.321382 J0.000000
G02 X142.344936 Y50.084726 Z-3.000000 I-13.600299 J4.313059
G02 X137.726981 Y46.779224 Z-3.000000 I-9.402611 J8.257418
G02 X131.242387 Y45.490568 Z-3.000000 I-6.484594 J15.671103
G02 X124.729463 Y46.781689 Z-3.000000 I0.000000 J17.072437
G02 X120.110389 Y50.084726 Z-3.000000 I4.763848 J11.543169
G02 X117.282440 Y55.147313 Z-3.000000 I10.795390 J9.351415
G02 X116.105226 Y62.807010 Z-3.000000 I24.330811 J7.659698
G02 X117.286412 Y70.492549 Z-3.000000 I25.594080 J0.000000
G02 X120.110389 Y75.529295 Z-3.000000 I13.463094 J-4.238380
G02 X124.729463 Y78.832331 Z-3.000000 I9.382921 J-8.240133
G02 X131.242387 Y80.123453 Z-3.000000 I6.512924 J-15.781316
G01 X131.242387 Y80.123453 Z-3.000000
G00 Z5.000000

(End cutting path id: text1)


(Start cutting path id: text1)
(Change tool to Default tool)

G00 Z5.000000
G00 X131.242387 Y75.529295

G01 Z-1.000000 F100.0(Penetrate)
G03 X127.343656 Y74.615974 Z-1.000000 I0.000000 J-8.777996 F400.000000
G03 X124.351151 Y72.113124 Z-1.000000 I3.700584 J-7.464965
G03 X122.575910 Y68.474513 Z-1.000000 I8.665059 J-6.479960
G03 X121.818474 Y62.807010 Z-1.000000 I20.824772 J-5.667503
G03 X122.566086 Y57.132206 Z-1.000000 I21.911312 J0.000000
G03 X124.321700 Y53.471444 Z-1.000000 I10.647861 J2.855102
G03 X127.310415 Y50.995217 Z-1.000000 I6.624928 J4.954296
G03 X131.242387 Y50.084726 Z-1.000000 I3.931972 J8.034901
G03 X135.113209 Y50.994993 Z-1.000000 I0.000000 J8.685280
G03 X138.104176 Y53.500896 Z-1.000000 I-3.727265 J7.486660
G03 X139.882963 Y57.166042 Z-1.000000 I-8.842712 J6.555808
G03 X140.636853 Y62.807010 Z-1.000000 I-20.727273 J5.640968
G03 X139.884533 Y68.419048 Z-1.000000 I-21.308037 J-0.000000
G03 X138.104176 Y72.083676 Z-1.000000 I-10.642469 J-2.905564
G03 X135.107948 Y74.613259 Z-1.000000 I-6.762465 J-4.970701
G03 X131.242387 Y75.529295 Z-1.000000 I-3.865561 J-7.698084
G01 X131.242387 Y75.529295 Z-1.000000
G00 Z5.000000

(End cutting path id: text1)


(Start cutting path id: text1)
(Change tool to Default tool)

G00 Z5.000000
G00 X131.242387 Y75.529295

G01 Z-2.000000 F100.0(Penetrate)
G03 X127.343656 Y74.615974 Z-2.000000 I0.000000 J-8.777996 F400.000000
G03 X124.351151 Y72.113124 Z-2.000000 I3.700584 J-7.464965
G03 X122.575910 Y68.474513 Z-2.000000 I8.665059 J-6.479960
G03 X121.818474 Y62.807010 Z-2.000000 I20.824772 J-5.667503
G03 X122.566086 Y57.132206 Z-2.000000 I21.911312 J0.000000
G03 X124.321700 Y53.471444 Z-2.000000 I10.647861 J2.855102
G03 X127.310415 Y50.995217 Z-2.000000 I6.624928 J4.954296
G03 X131.242387 Y50.084726 Z-2.000000 I3.931972 J8.034901
G03 X135.113209 Y50.994993 Z-2.000000 I0.000000 J8.685280
G03 X138.104176 Y53.500896 Z-2.000000 I-3.727265 J7.486660
G03 X139.882963 Y57.166042 Z-2.000000 I-8.842712 J6.555808
G03 X140.636853 Y62.807010 Z-2.000000 I-20.727273 J5.640968
G03 X139.884533 Y68.419048 Z-2.000000 I-21.308037 J-0.000000
G03 X138.104176 Y72.083676 Z-2.000000 I-10.642469 J-2.905564
G03 X135.107948 Y74.613259 Z-2.000000 I-6.762465 J-4.970701
G03 X131.242387 Y75.529295 Z-2.000000 I-3.865561 J-7.698084
G01 X131.242387 Y75.529295 Z-2.000000
G00 Z5.000000

(End cutting path id: text1)


(Start cutting path id: text1)
(Change tool to Default tool)

G00 Z5.000000
G00 X131.242387 Y75.529295

G01 Z-3.000000 F100.0(Penetrate)
G03 X127.343656 Y74.615974 Z-3.000000 I0.000000 J-8.777996 F400.000000
G03 X124.351151 Y72.113124 Z-3.000000 I3.700584 J-7.464965
G03 X122.575910 Y68.474513 Z-3.000000 I8.665059 J-6.479960
G03 X121.818474 Y62.807010 Z-3.000000 I20.824772 J-5.667503
G03 X122.566086 Y57.132206 Z-3.000000 I21.911312 J0.000000
G03 X124.321700 Y53.471444 Z-3.000000 I10.647861 J2.855102
G03 X127.310415 Y50.995217 Z-3.000000 I6.624928 J4.954296
G03 X131.242387 Y50.084726 Z-3.000000 I3.931972 J8.034901
G03 X135.113209 Y50.994993 Z-3.000000 I0.000000 J8.685280
G03 X138.104176 Y53.500896 Z-3.000000 I-3.727265 J7.486660
G03 X139.882963 Y57.166042 Z-3.000000 I-8.842712 J6.555808
G03 X140.636853 Y62.807010 Z-3.000000 I-20.727273 J5.640968
G03 X139.884533 Y68.419048 Z-3.000000 I-21.308037 J-0.000000
G03 X138.104176 Y72.083676 Z-3.000000 I-10.642469 J-2.905564
G03 X135.107948 Y74.613259 Z-3.000000 I-6.762465 J-4.970701
G03 X131.242387 Y75.529295 Z-3.000000 I-3.865561 J-7.698084
G01 X131.242387 Y75.529295 Z-3.000000
G00 Z5.000000

(End cutting path id: text1)


(Footer)
M5
G00 X0.0000 Y0.0000
M2
(Using default footer. To add your own footer create file "footer" in the output dir.)
(end)
%